images/category_icons/managment-icon.svg

<svg xmlns="http://www.w3.org/2000/svg" fill="none" viewBox="0 0 480 480"><path fill="#000" d="M240 0c-26.51 0-48 21.49-48 48s21.49 48 48 48c26.499-.026 47.974-21.501 48-48 0-26.51-21.49-48-48-48zm0 80c-17.673 0-32-14.327-32-32 0-17.673 14.327-32 32-32 17.673 0 32 14.327 32 32 0 17.673-14.327 32-32 32zM272 104h-1.888l-1.688.84a63.773 63.773 0 01-56.848 0l-1.688-.84H208c-22.08.026-39.974 17.92-40 40v48c0 13.255 10.745 24 24 24h96c13.255 0 24-10.745 24-24v-48c-.026-22.08-17.92-39.974-40-40zm24 88a8 8 0 01-8 8h-96a8 8 0 01-8-8v-48c.002-12.592 9.735-23.042 22.296-23.936a80.061 80.061 0 0067.408 0c12.56.894 22.294 11.344 22.296 23.936v48zM408 264c-26.51 0-48 21.49-48 48s21.49 48 48 48 48-21.49 48-48c-.026-26.499-21.501-47.974-48-48zm0 80c-17.673 0-32-14.327-32-32 0-17.673 14.327-32 32-32 17.673 0 32 14.327 32 32 0 17.673-14.327 32-32 32zM440 368h-1.888l-1.688.8a63.78 63.78 0 01-56.848 0l-1.688-.8H376c-22.08.026-39.974 17.92-40 40v48c0 13.255 10.745 24 24 24h96c13.255 0 24-10.745 24-24v-48c-.026-22.08-17.92-39.974-40-40zm24 88a8 8 0 01-8 8h-96a8 8 0 01-8-8v-48c.002-12.592 9.735-23.042 22.296-23.936a80.061 80.061 0 0067.408 0c12.561.894 22.294 11.344 22.296 23.936v48zM72 264c-26.51 0-48 21.49-48 48s21.49 48 48 48 48-21.49 48-48c-.026-26.499-21.501-47.974-48-48zm0 80c-17.673 0-32-14.327-32-32 0-17.673 14.327-32 32-32 17.673 0 32 14.327 32 32 0 17.673-14.327 32-32 32zM104 368h-1.888l-1.688.8a63.78 63.78 0 01-56.848 0l-1.688-.8H40c-22.08.026-39.974 17.92-40 40v48c0 13.255 10.745 24 24 24h96c13.255 0 24-10.745 24-24v-48c-.026-22.08-17.92-39.974-40-40zm24 88a8 8 0 01-8 8H24a8 8 0 01-8-8v-48c.002-12.592 9.735-23.042 22.296-23.936a80.061 80.061 0 0067.408 0c12.561.894 22.294 11.344 22.296 23.936v48zM319.372 406.276l-.012-.028a8 8 0 00-10.495-4.224 177.456 177.456 0 01-114.104 7.856l7.488-2.2a8.002 8.002 0 005.432-9.928 8.002 8.002 0 00-9.928-5.432l-32 9.384c-.12 0-.208.136-.32.176a7.928 7.928 0 00-2.064 1.144c-.278.15-.545.318-.8.504a7.75 7.75 0 00-1.96 2.72 8.012 8.012 0 00-.608 3.304c.195 1.083.462 2.152.8 3.2.048.112 0 .24.088.352l16 30.616a8.004 8.004 0 1014.192-7.408l-6.512-12.448a192.565 192.565 0 00130.552-7.104 8 8 0 004.251-10.484zM453.656 210.344a8 8 0 00-11.312 0l-11.32 11.32c-6.624-70.07-51.111-130.876-115.888-158.4a8 8 0 10-6.272 14.72c58.11 24.697 98.504 78.669 105.816 141.384l-9.024-9.024a8 8 0 00-11.312 11.312l24 24a8 8 0 0011.328 0l24-24a8 8 0 00-.016-11.312zM175.768 69.272a7.439 7.439 0 00-.208-1.384c0-.072-.088-.12-.12-.2-.032-.08 0-.136 0-.2a7.673 7.673 0 00-.752-1.104 8.076 8.076 0 00-.912-1.32 7.508 7.508 0 00-1.56-1.064 7.037 7.037 0 00-.896-.648l-32-14.616a8 8 0 00-6.64 14.544l16.568 7.576C86.875 104.237 47.955 169.256 48 240a8 8 0 0016 0c-.04-62.293 32.901-119.952 86.584-151.552l-5.784 12.088a8 8 0 003.736 10.664 7.876 7.876 0 003.464.8 8 8 0 007.2-4.536l16-33.384c0-.08 0-.168.064-.248a7.693 7.693 0 00.432-1.696c.137-.431.239-.872.304-1.32a7.977 7.977 0 00-.232-1.544z"/></svg>

<svg width="480" height="480" viewBox="0 0 480 480" fill="none" xmlns="http://www.w3.org/2000/svg">
<path d="M240 0C213.49 0 192 21.49 192 48C192 74.51 213.49 96 240 96C266.499 95.974 287.974 74.499 288 48C288 21.49 266.51 0 240 0ZM240 80C222.327 80 208 65.673 208 48C208 30.327 222.327 16 240 16C257.673 16 272 30.327 272 48C272 65.673 257.673 80 240 80Z" fill="black"/>
<path d="M272 104H270.112L268.424 104.84C250.523 113.753 229.477 113.753 211.576 104.84L209.888 104H208C185.92 104.026 168.026 121.92 168 144V192C168 205.255 178.745 216 192 216H288C301.255 216 312 205.255 312 192V144C311.974 121.92 294.08 104.026 272 104ZM296 192C296 196.418 292.418 200 288 200H192C187.582 200 184 196.418 184 192V144C184.002 131.408 193.735 120.958 206.296 120.064C227.671 129.984 252.33 129.984 273.704 120.064C286.264 120.958 295.998 131.408 296 144V192Z" fill="black"/>
<path d="M408 264C381.49 264 360 285.49 360 312C360 338.51 381.49 360 408 360C434.51 360 456 338.51 456 312C455.974 285.501 434.499 264.026 408 264ZM408 344C390.327 344 376 329.673 376 312C376 294.327 390.327 280 408 280C425.673 280 440 294.327 440 312C440 329.673 425.673 344 408 344Z" fill="black"/>
<path d="M440 368H438.112L436.424 368.8C418.523 377.712 397.477 377.712 379.576 368.8L377.888 368H376C353.92 368.026 336.026 385.92 336 408V456C336 469.255 346.745 480 360 480H456C469.255 480 480 469.255 480 456V408C479.974 385.92 462.08 368.026 440 368ZM464 456C464 460.418 460.418 464 456 464H360C355.582 464 352 460.418 352 456V408C352.002 395.408 361.735 384.958 374.296 384.064C395.671 393.984 420.329 393.984 441.704 384.064C454.265 384.958 463.998 395.408 464 408V456Z" fill="black"/>
<path d="M72 264C45.49 264 24 285.49 24 312C24 338.51 45.49 360 72 360C98.51 360 120 338.51 120 312C119.974 285.501 98.499 264.026 72 264ZM72 344C54.327 344 40 329.673 40 312C40 294.327 54.327 280 72 280C89.673 280 104 294.327 104 312C104 329.673 89.673 344 72 344Z" fill="black"/>
<path d="M104 368H102.112L100.424 368.8C82.523 377.712 61.477 377.712 43.576 368.8L41.888 368H40C17.92 368.026 0.026 385.92 0 408V456C0 469.255 10.745 480 24 480H120C133.255 480 144 469.255 144 456V408C143.974 385.92 126.08 368.026 104 368ZM128 456C128 460.418 124.418 464 120 464H24C19.582 464 16 460.418 16 456V408C16.002 395.408 25.735 384.958 38.296 384.064C59.671 393.984 84.329 393.984 105.704 384.064C118.265 384.958 127.998 395.408 128 408V456Z" fill="black"/>
<path d="M319.372 406.276C319.368 406.267 319.364 406.258 319.36 406.248C317.628 402.183 312.929 400.292 308.865 402.024C272.74 417.164 232.62 419.926 194.761 409.88L202.249 407.68C206.491 406.438 208.923 401.994 207.681 397.752C206.439 393.51 201.995 391.078 197.753 392.32L165.753 401.704C165.633 401.704 165.545 401.84 165.433 401.88C164.692 402.156 163.996 402.542 163.369 403.024C163.091 403.174 162.824 403.342 162.569 403.528C161.725 404.281 161.056 405.209 160.609 406.248C160.175 407.294 159.968 408.42 160.001 409.552C160.196 410.635 160.463 411.704 160.801 412.752C160.849 412.864 160.801 412.992 160.889 413.104L176.889 443.72C178.935 447.639 183.77 449.158 187.689 447.112C191.608 445.066 193.127 440.231 191.081 436.312L184.569 423.864C227.583 436.794 273.764 434.281 315.121 416.76C319.189 415.039 321.093 410.345 319.372 406.276Z" fill="black"/>
<path d="M453.656 210.344C450.532 207.221 445.468 207.221 442.344 210.344L431.024 221.664C424.4 151.594 379.913 90.7879 315.136 63.2639C311.071 61.5319 306.372 63.4229 304.64 67.4879C302.908 71.5529 304.799 76.2519 308.864 77.9839C366.974 102.681 407.368 156.653 414.68 219.368L405.656 210.344C402.478 207.274 397.414 207.362 394.344 210.54C391.35 213.64 391.35 218.555 394.344 221.656L418.344 245.656C421.464 248.784 426.53 248.791 429.658 245.67C429.663 245.665 429.668 245.66 429.672 245.656L453.672 221.656C456.791 218.528 456.784 213.464 453.656 210.344Z" fill="black"/>
<path d="M175.768 69.272C175.742 68.805 175.673 68.342 175.56 67.888C175.56 67.816 175.472 67.768 175.44 67.688C175.408 67.608 175.44 67.552 175.44 67.488C175.222 67.099 174.97 66.729 174.688 66.384C174.429 65.915 174.123 65.473 173.776 65.064C173.303 64.645 172.779 64.288 172.216 64C171.935 63.761 171.635 63.544 171.32 63.352L139.32 48.736C135.233 47.058 130.559 49.011 128.881 53.098C127.294 56.963 128.949 61.399 132.68 63.28L149.248 70.856C86.875 104.237 47.955 169.256 48 240C48 244.418 51.582 248 56 248C60.418 248 64 244.418 64 240C63.96 177.707 96.901 120.048 150.584 88.448L144.8 100.536C142.893 104.513 144.564 109.283 148.536 111.2C149.615 111.727 150.799 112.001 152 112C155.072 111.996 157.87 110.233 159.2 107.464L175.2 74.08C175.2 74 175.2 73.912 175.264 73.832C175.472 73.285 175.617 72.716 175.696 72.136C175.833 71.705 175.935 71.264 176 70.816C175.973 70.295 175.896 69.778 175.768 69.272Z" fill="black"/>
</svg>
